X:52
T:Polska fr{\aa}n M\"oklinta
R:sl\"angpolska
H:efter klockare Robert Landin (1850-1907)
A:V\"astmanland
D:SW{\AA}P: [sic]
Z:id:hn-sp-52
M:3/4
L:1/16
K:D
A2d2 cdec d4|A2f2 efge f4|a2gf g2fe f2ed|cdcB ABAG FGFE|
D2d2 cdec d4|A2f2 efge f4|a2gf e2d2 c2B2|cBA^G A8:|
|:A2e2 a2gf g2ed|B2f2 g2fe f2ed|c2a2 B2g2 A2f2|efed cdcB A4|
A2d2 cdec d4|A2f2 efge f4|a2gf g2fe f2ed|cdec d8:|
<end>
<start>
